!!!Melodie: Wo Gott, der Herr, nicht bei uns hält
!!!Typ: Lied
**kern	**silbe	**silbe	**silbe	**silbe	**silbe	**silbe	**silbe	**silbe	**silbe	**silbe
*clefG2	*lang:DE	*lang:DE	*lang:DE	*lang:DE	*lang:DE	*lang:DE	*lang:DE	*lang:DE	*lang:DE	*lang:DE
*M4/4	*	*	*	*	*	*	*	*	*	*
*met(c)	*	*	*	*	*	*	*	*	*	*
2cc	Ich	nicht	Er	die	Und	ich	Ja,	ich	Und	dass
=	=	=	=	=	=	=	=	=	=	=
2cc	steh’	Er#	ist	sich	was	hal#	wenn’s	weiß,	mei#	nichts
2a	in	#den#	ein	auf	er	#te	am	die	#nes	mich
=	=	=	=	=	=	=	=	=	=	=
(4cc	mei#	#not,	Fels,	sein	mit	ihm	schlimm#	We#	Glau#	sei#
4dd)	|	|	|	|	|	|	|	|	|	|
2ee	#nes	nicht	ein	wahr#	mir	im	#sten	#ge,	#bens	#ner
=	=	=	=	=	=	=	=	=	=	=
2dd	Her#	Er#	sich’#	#haf#	ma#	Glau#	mit	die	Un#	star#
2dd	#ren	#den#	#rer	#tig'	#chen	#ben	mir	er	#ter#	#ken
=	=	=	=	=	=	=	=	=	=	=
2;cc	Hand	#tand	Hort	Wort	will,	still	steht,	geht,	#pfand	Hand
2cc	und	soll	und	ver#	ist	und	freu’	sind	ist,	soll
=	=	=	=	=	=	=	=	=	=	=
2b	will	mich	Wun#	#las#	al#	hoff’	ich	lau#	was	je
(4a	drin	da#	#der	#sen	#les	auf	mich	#ter	er	und
4b)	|	|	|	|	|	|	|	|	|	|
=	=	=	=	=	=	=	=	=	=	=
2cc	ste#	#raus	sol#	und	mir	sei#	sei#	Wun#	selbst	je
(4dd	#hen	ver#	#len	ihm	ge#	#nen	#ner	#der#	ver#	ent#
4cc)	|	|	|	|	|	|	|	|	|	|
=	=	=	=	=	=	=	=	=	=	=
1b	blei#	#trei#	schau#	trau#	#le#	Se#	Pfle#	#we#	#hei#	#rei#
=	=	=	=	=	=	=	=	=	=	=
2;a	#ben;	#ben;	#en,	#en.	#gen,	#gen.	#ge;	#ge.	#ßen:	#ßen.
=:|	=	=	=	=	=	=	=	=	=	=
2dd	.	Und	.	Er	.	Denn	.	Was	.	Was
=	=	=	=	=	=	=	=	=	=	=
2ee	.	wenn	.	hat’s	.	was	.	bö#	.	er
2ee	.	zer#	.	ge#	.	er	.	#se	.	ver#
=	=	=	=	=	=	=	=	=	=	=
(4b	.	#fällt	.	#sagt	.	tut,	.	scheint,	.	#spricht,
4cc)	.	|	.	|	.	|	.	|	.	|
2dd	.	die	.	und	.	ist	.	ist	.	das
=	=	=	=	=	=	=	=	=	=	=
2cc	.	gan#	.	da#	.	im#	.	gut	.	bricht
2cc	.	#ze	.	#rauf	.	#mer	.	ge#	.	er
=	=	=	=	=	=	=	=	=	=	=
2;b	.	Welt,	.	wagt	.	gut	.	#meint,	.	nicht.
2cc	.	wer	.	mein	.	und	.	er	.	Er
=	=	=	=	=	=	=	=	=	=	=
2dd	.	sich	.	Herz	.	wer	.	ist	.	blei#
(4a	.	an	.	es	.	von	.	doch	.	#bet
4b)	.	|	.	|	.	|	.	|	.	|
=	=	=	=	=	=	=	=	=	=	=
2cc	.	ihm	.	froh	.	ihm	.	nim#	.	mei#
2b	.	und	.	und	.	be#	.	#mer#	.	#ne
=	=	=	=	=	=	=	=	=	=	=
2a	.	wen	.	un#	.	#hü#	.	#mehr	.	Zu#
2a	.	er	.	#ver#	.	#tet	.	mein	.	#ver#
=	=	=	=	=	=	=	=	=	=	=
2;g	.	hält,	.	#zagt	.	ruht,	.	Feind	.	#sicht,
2cc	.	wird	.	und	.	ist	.	und	.	ich
=	=	=	=	=	=	=	=	=	=	=
2b	.	wohl#	.	lässt	.	si#	.	gibt	.	will
(4a	.	#be#	.	sich	.	#cher	.	nur	.	ihn
4b)	.	|	.	|	.	|	.	|	.	|
=	=	=	=	=	=	=	=	=	=	=
2cc	.	#hal#	.	gar	.	al#	.	Lie#	.	e#
(4dd	.	#ten	.	nicht	.	#ler#	.	#bes#	.	#wig
4cc)	.	|	.	|	.	|	.	|	.	|
=	=	=	=	=	=	=	=	=	=	=
1b	.	blei#	.	grau#	.	#we#	.	#schlä#	.	prei#
=	=	=	=	=	=	=	=	=	=	=
2;a	.	#ben.	.	#en.	.	#gen.	.	#ge.	.	#sen.
==	==	==	==	==	==	==	==	==	==	==
*-	*-	*-	*-	*-	*-	*-	*-	*-	*-	*-
